brandFactory_export/2.Regular/Copa_Premio_2Regular.svg

<?xml version="1.0" encoding="UTF-8"?>
<svg width="24px" height="24px" viewBox="0 0 24 24" version="1.1" xmlns="http://www.w3.org/2000/svg" xmlns:xlink="http://www.w3.org/1999/xlink">
    <title>2.Regular/Copa_Premio_2Regular</title>
    <g id="Symbols" stroke="none" stroke-width="1" fill="none" fill-rule="evenodd">
        <g id="2.Regular/Copa_Premio_2Regular" fill="#5CB615" fill-rule="nonzero">
            <path d="M18.7193277,9.51260504 C18.594958,9.51596639 18.4605042,9.51260504 18.3462185,9.5092437 C18.312605,9.5092437 18.2621849,9.50588235 18.2184874,9.50252101 C18.8537815,7.76134454 19.0789916,5.55630252 19.102521,3.00840336 L19.102521,2.43361345 C20.2184874,2.52773109 22.1142857,3.10588235 22.1142857,5.94957983 C22.1142857,9.11932773 19.7411765,9.49579832 18.7193277,9.51260504 M17.589916,2.99495798 C17.5260504,9.77815126 16.0672269,12.1445378 11.8487395,12.2319328 C11.8352941,12.2285714 11.6571429,12.2386555 11.610084,12.2386555 C7.1697479,12.2386555 5.6605042,9.8487395 5.62689076,2.77310924 L5.62689076,1.49243697 L17.589916,1.49243697 C17.5932773,2.11092437 17.5932773,2.90084034 17.589916,2.99495798 M15.4252101,22.1310924 L8.19495798,22.1310924 C8.41680672,20.1647059 9.58319328,19.2403361 11.8084034,19.2403361 C14.0369748,19.2403361 15.2033613,20.1647059 15.4252101,22.1310924 M4.90420168,9.51260504 C3.88235294,9.49915966 1.5092437,9.12268908 1.5092437,5.95294118 C1.5092437,3.42857143 3.00504202,2.68907563 4.1210084,2.48739496 L4.1210084,2.77647059 C4.13445378,5.42857143 4.35630252,7.71428571 5.01512605,9.5092437 C4.97815126,9.5092437 4.94117647,9.51260504 4.90420168,9.51260504 M19.102521,0.941176471 L19.102521,0.749579832 C19.102521,0.336134454 18.7630252,0.00336134454 18.3495798,0.00336134454 L4.87394958,0.00336134454 C4.45714286,0.00336134454 4.1210084,0.339495798 4.1210084,0.749579832 L4.1210084,0.981512605 C2.01344538,1.25378151 0,2.65882353 0,5.95294118 C0,9.62689076 2.5210084,10.9714286 4.88067227,11.005042 L5.03529412,11.005042 C5.12941176,11.005042 5.22016807,11.005042 5.29747899,11.0016807 C5.40840336,11.0016807 5.56302521,10.9915966 5.72773109,10.9747899 C6.7697479,12.6117647 8.44033613,13.5831933 11.0554622,13.707563 L11.0554622,17.8016807 C8.21512605,18.0672269 6.64537815,19.8319328 6.64537815,22.8773109 C6.64537815,23.2907563 6.98487395,23.6235294 7.40168067,23.6235294 L16.2184874,23.6235294 C16.6352941,23.6235294 16.9714286,23.287395 16.9714286,22.8773109 C16.9714286,19.8319328 15.4016807,18.0705882 12.5613445,17.8016807 L12.5613445,13.6907563 C14.9983193,13.4890756 16.5512605,12.5210084 17.5361345,10.9243697 L17.697479,10.9546218 C17.9563025,10.9882353 18.1747899,10.9983193 18.312605,11.0016807 C18.3966387,11.005042 18.487395,11.005042 18.5848739,11.005042 L18.7394958,11.005042 C21.0991597,10.9714286 23.6201718,9.62352941 23.6201718,5.95294118 C23.6235294,2.45042017 21.3478992,1.0789916 19.102521,0.941176471" id="Copa_Premio_2Regular"></path>
        </g>
    </g>
</svg>

<svg width="24" height="24" viewBox="0 0 24 24" xmlns="http://www.w3.org/2000/svg"><path d="M18.72 9.513a6.81 6.81 0 01-.502-.01c.636-1.742.861-3.947.885-6.495v-.574c1.115.094 3.011.672 3.011 3.516 0 3.17-2.373 3.546-3.395 3.563m-1.13-6.518c-.063 6.783-1.522 9.15-5.74 9.237-.014-.003-.192.007-.239.007-4.44 0-5.95-2.39-5.983-9.466v-1.28H17.59c.003.618.003 1.408 0 1.502m-2.165 19.136h-7.23c.222-1.966 1.388-2.89 3.613-2.89 2.229 0 3.395.924 3.617 2.89M4.905 9.513c-1.023-.014-3.396-.39-3.396-3.56 0-2.524 1.496-3.264 2.612-3.466v.29c.013 2.652.235 4.937.894 6.732-.037 0-.074.004-.11.004M19.102.94V.75a.75.75 0 00-.753-.747H4.874A.75.75 0 004.12.75v.232C2.013 1.254 0 2.659 0 5.952c0 3.675 2.521 5.02 4.88 5.053h.155c.094 0 .185 0 .262-.003.111 0 .266-.01.43-.027 1.043 1.637 2.713 2.608 5.328 2.733v4.094c-2.84.265-4.41 2.03-4.41 5.075 0 .414.34.747.757.747h8.816a.75.75 0 00.753-.747c0-3.045-1.57-4.806-4.41-5.075V13.69c2.437-.202 3.99-1.17 4.975-2.767l.161.03c.26.034.478.044.616.048.084.003.174.003.272.003h.154c2.36-.034 4.881-1.381 4.881-5.052.004-3.503-2.272-4.874-4.517-5.012" fill="#5CB615" fill-rule="nonzero"/></svg>
